public/img/socials-dark-vk.svg

<svg width="32" height="24" viewBox="0 0 32 24" fill="none" xmlns="http://www.w3.org/2000/svg">
<path d="M28.7714 6.85483C28.958 6.38983 28.7713 6.04883 27.8887 6.04883H24.9647C24.2207 6.04883 23.8807 6.34383 23.694 6.66783C23.694 6.66783 22.2073 9.38683 20.1007 11.1498C19.4207 11.6628 19.11 11.8248 18.7393 11.8248C18.554 11.8248 18.2847 11.6628 18.2847 11.1978V6.85483C18.2847 6.29683 18.07 6.04883 17.45 6.04883H12.8553C12.3913 6.04883 12.1113 6.30683 12.1113 6.55283C12.1113 7.08083 13.1647 7.20283 13.2727 8.69083V11.9188C13.2727 12.6258 13.1033 12.7548 12.73 12.7548C11.7393 12.7548 9.32868 10.0258 7.89802 6.90183C7.61935 6.29483 7.33802 6.04983 6.59135 6.04983H3.66868C2.83268 6.04983 2.66602 6.34483 2.66602 6.66883C2.66602 7.25083 3.65668 10.1308 7.28068 13.9398C9.69668 16.5408 13.098 17.9508 16.1967 17.9508C18.054 17.9508 18.2833 17.6378 18.2833 17.0978V15.1318C18.2833 14.5058 18.4607 14.3798 19.0487 14.3798C19.4807 14.3798 20.2247 14.5438 21.9593 15.7968C23.9407 17.2828 24.2687 17.9498 25.382 17.9498H28.3047C29.1393 17.9498 29.5567 17.6368 29.3167 17.0188C29.054 16.4038 28.1073 15.5088 26.8513 14.4498C26.1687 13.8458 25.1487 13.1958 24.838 12.8708C24.4047 12.4518 24.53 12.2668 24.838 11.8948C24.8393 11.8958 28.4007 8.13383 28.7714 6.85483Z" fill="black"/>
</svg>

<svg width="32" height="24" fill="none" xmlns="http://www.w3.org/2000/svg"><path d="M28.771 6.855c.187-.465 0-.806-.882-.806h-2.924c-.744 0-1.084.295-1.271.619 0 0-1.487 2.719-3.593 4.482-.68.513-.991.675-1.362.675-.185 0-.454-.162-.454-.627V6.855c0-.558-.215-.806-.835-.806h-4.595c-.464 0-.744.258-.744.504 0 .528 1.054.65 1.162 2.138v3.228c0 .707-.17.836-.543.836-.99 0-3.401-2.73-4.832-5.853-.279-.607-.56-.852-1.307-.852H3.67c-.836 0-1.003.295-1.003.619 0 .582.99 3.462 4.615 7.27 2.416 2.602 5.817 4.012 8.916 4.012 1.857 0 2.086-.313 2.086-.853v-1.966c0-.626.178-.752.766-.752.432 0 1.176.164 2.91 1.417 1.982 1.486 2.31 2.153 3.423 2.153h2.923c.834 0 1.252-.313 1.012-.931-.263-.615-1.21-1.51-2.466-2.57-.682-.603-1.702-1.253-2.013-1.578-.433-.42-.308-.604 0-.976.001 0 3.563-3.761 3.933-5.04z" fill="#000"/></svg>
